packages/foundations/assets/icons/functional/images/communication/speech_bubbles_28.svg

<svg width="28" height="28" viewBox="0 0 28 28" fill="none" xmlns="http://www.w3.org/2000/svg">
<g clip-path="url(#clip0_185_514)">
<path fill-rule="evenodd" clip-rule="evenodd" d="M5.25 7.875C5.74219 7.875 6.125 8.25781 6.125 8.75C6.125 9.1875 5.79688 9.625 5.25 9.625H4.375C3.9375 9.625 3.5 9.95312 3.5 10.5V23.2696L5.87895 20.8906C6.31645 20.4531 6.91792 20.125 7.54688 20.125H15.75C16.1875 20.125 16.625 19.7969 16.625 19.25V18.375C16.625 17.8828 17.0078 17.5 17.5 17.5C17.9375 17.5 18.375 17.8281 18.375 18.375V19.25C18.375 20.6446 17.2812 21.875 15.9141 21.875H7.73833C7.51958 21.875 7.27344 21.9571 7.10938 22.121L3.41792 25.8398C3.25395 26.004 2.87105 26.25 2.43355 26.25C2.05082 26.25 1.75 25.8398 1.75 25.375V10.5C1.75 9.10542 2.84375 7.875 4.375 7.875H5.25ZM23.625 1.75C25.0742 1.75 26.25 2.92582 26.25 4.375V19.25C26.25 19.7696 25.8125 20.125 25.3477 20.125C25.1562 20.125 24.9375 20.0703 24.746 19.879L20.8906 15.996C20.7266 15.8321 20.5078 15.75 20.2891 15.75H10.5C9.05083 15.75 7.875 14.5742 7.875 13.125V4.375C7.875 2.92582 9.05083 1.75 10.5 1.75H23.625ZM23.7344 3.5H10.5C10.0078 3.5 9.625 3.88281 9.625 4.375V13.125C9.625 13.6172 10.0078 14 10.5 14H20.2891C20.9727 14 21.629 14.2734 22.121 14.7656L24.5 17.1446V4.375C24.5 3.9375 24.1719 3.5 23.7344 3.5Z" fill="#1A1C1F"/>
</g>
<defs>
<clipPath id="clip0_185_514">
<rect width="28" height="28" fill="white"/>
</clipPath>
</defs>
</svg>

<svg xmlns="http://www.w3.org/2000/svg" width="28" height="28" fill="none"><g clip-path="url(#a)"><path fill="#1A1C1F" fill-rule="evenodd" d="M5.25 7.875c.492 0 .875.383.875.875 0 .438-.328.875-.875.875h-.875c-.437 0-.875.328-.875.875v12.77l2.379-2.38c.437-.437 1.039-.765 1.668-.765h8.203c.438 0 .875-.328.875-.875v-.875c0-.492.383-.875.875-.875.438 0 .875.328.875.875v.875c0 1.395-1.094 2.625-2.46 2.625H7.737a.91.91 0 0 0-.629.246L3.418 25.84c-.164.164-.547.41-.984.41-.383 0-.684-.41-.684-.875V10.5c0-1.395 1.094-2.625 2.625-2.625zM23.625 1.75a2.626 2.626 0 0 1 2.625 2.625V19.25c0 .52-.437.875-.902.875a.82.82 0 0 1-.602-.246l-3.855-3.883a.85.85 0 0 0-.602-.246H10.5a2.626 2.626 0 0 1-2.625-2.625v-8.75A2.626 2.626 0 0 1 10.5 1.75zm.11 1.75H10.5a.864.864 0 0 0-.875.875v8.75c0 .492.383.875.875.875h9.79c.683 0 1.339.273 1.831.766l2.379 2.379V4.375c0-.437-.328-.875-.766-.875" clip-rule="evenodd"/></g><defs><clipPath id="a"><path fill="#fff" d="M0 0h28v28H0z"/></clipPath></defs></svg>
